X: 2135
T: Attaboy
R: reel
M: 4/4
K: Gmajor
|:G3 E D2 ED|EGAB c3 B|A2 fd edBd|fded BdBA|
G3 E D2 ED|EGAB c3 B|A2 fd edBd|1 ABGE DB,DE:|2 ABGA Bdeg||
|:a3 g e2 ge|dega bage|d3 B A2 BA|GABd edBA|
G3 E D2 ED|EGAB c3 B|A2 fd edBd|1 ABGA Bdeg:|2 ABGE DB,DE||

